app/img/categories__sofa.svg

<svg width="100" height="84" viewBox="0 0 100 84" fill="none" xmlns="http://www.w3.org/2000/svg">
<path d="M46.6655 79.1791H16.7647C14.2771 79.1763 12.261 77.1604 12.2583 74.6727V63.057C12.2612 60.5693 14.2771 58.5532 16.7647 58.5505H46.6655C49.1531 58.5534 51.1692 60.5693 51.1719 63.057V74.6727C51.169 77.1604 49.1531 79.1764 46.6655 79.1791ZM16.7647 60.8941C15.5708 60.8955 14.6032 61.863 14.6021 63.0568V74.6725C14.6034 75.8665 15.571 76.834 16.7647 76.8352H46.6655C47.8594 76.8338 48.8268 75.8663 48.8281 74.6725V63.0568C48.8268 61.8629 47.8592 60.8955 46.6655 60.8941H16.7647Z" fill="#1E2E36"/>
<path d="M10.0955 79.1791H4.50643C2.01875 79.1764 0.00287163 77.1603 0 74.6726V52.4356C0.00287163 49.948 2.01875 47.9319 4.50643 47.9292H10.0953C12.583 47.9321 14.599 49.948 14.6017 52.4356V74.6726C14.599 77.1603 12.5831 79.1764 10.0955 79.1791ZM4.50643 50.273C3.31251 50.2743 2.34511 51.2417 2.34375 52.4356V74.6726C2.34511 75.8666 3.31267 76.834 4.50643 76.8353H10.0953C11.2892 76.834 12.2566 75.8664 12.258 74.6726V52.4356C12.2566 51.2417 11.2892 50.2741 10.0953 50.273H4.50643Z" fill="#1E2E36"/>
<path d="M86.5699 70.0366H13.4301C12.783 70.0366 12.2583 69.512 12.2583 68.8648C12.2583 68.2177 12.783 67.6929 13.4301 67.6929H86.5701C87.2172 67.6929 87.7419 68.2175 87.7419 68.8648C87.7419 69.5121 87.2172 70.0366 86.5699 70.0366Z" fill="#1E2E36"/>
<path d="M46.6655 60.894H16.7647C14.2771 60.8911 12.261 58.8753 12.2583 56.3876V38.5406C12.2612 36.0529 14.2771 34.0369 16.7647 34.0342H46.6655C49.1531 34.0371 51.1692 36.0529 51.1719 38.5406V56.3876C51.169 58.8753 49.1531 60.8913 46.6655 60.894ZM16.7647 36.3778C15.5708 36.3791 14.6032 37.3465 14.6021 38.5404V56.3874C14.6034 57.5813 15.571 58.5489 16.7647 58.5501H46.6655C47.8594 58.5487 48.8268 57.5812 48.8281 56.3874V38.5406C48.8268 37.3467 47.8592 36.3791 46.6655 36.3779L16.7647 36.3778Z" fill="#1E2E36"/>
<path d="M83.2353 60.894H53.3345C50.8469 60.8911 48.8308 58.8753 48.8281 56.3876V38.5406C48.831 36.0529 50.8469 34.0369 53.3345 34.0342H83.2353C85.723 34.0371 87.739 36.0529 87.7417 38.5406V56.3876C87.739 58.8753 85.7231 60.8913 83.2353 60.894ZM53.3345 36.3778C52.1406 36.3791 51.1731 37.3467 51.1719 38.5404V56.3874C51.1732 57.5813 52.1408 58.5487 53.3345 58.5501H83.2353C84.4292 58.5487 85.3968 57.5812 85.398 56.3874V38.5406C85.3966 37.3467 84.429 36.3791 83.2353 36.3779L53.3345 36.3778Z" fill="#1E2E36"/>
<path d="M83.2353 79.1791H53.3345C50.8469 79.1763 48.8308 77.1604 48.8281 74.6727V63.057C48.831 60.5693 50.8469 58.5532 53.3345 58.5505H83.2353C85.723 58.5534 87.739 60.5693 87.7417 63.057V74.6727C87.739 77.1604 85.7231 79.1764 83.2353 79.1791ZM53.3345 60.8941C52.1406 60.8955 51.1732 61.863 51.1719 63.0568V74.6725C51.1732 75.8665 52.1408 76.8338 53.3345 76.8352H83.2353C84.4292 76.8338 85.3968 75.8663 85.398 74.6725V63.0568C85.3966 61.8629 84.429 60.8953 83.2353 60.8941H53.3345Z" fill="#1E2E36"/>
<path d="M95.4935 79.1791H89.9047C87.417 79.1762 85.401 77.1603 85.3983 74.6726V52.4356C85.4011 49.948 87.417 47.9319 89.9047 47.9292H95.4935C97.9812 47.9321 99.9973 49.948 100 52.4356V74.6726C99.9971 77.1603 97.9812 79.1764 95.4935 79.1791ZM89.9045 50.273C88.7106 50.2743 87.7432 51.2417 87.7418 52.4356V74.6726C87.7432 75.8666 88.7108 76.834 89.9045 76.8353H95.4934C96.6873 76.834 97.6549 75.8664 97.656 74.6725V52.4356C97.6547 51.2417 96.6873 50.2741 95.4934 50.273H89.9045Z" fill="#1E2E36"/>
<path d="M52.7396 60.8941H47.2604C46.6133 60.8941 46.0886 60.3694 46.0886 59.7223C46.0886 59.0751 46.6133 58.5503 47.2604 58.5503H52.7396C53.3867 58.5503 53.9116 59.075 53.9116 59.7223C53.9116 60.3696 53.3867 60.8941 52.7396 60.8941Z" fill="#1E2E36"/>
<path d="M71.4504 30.6387H28.5495C27.9024 30.6387 27.3777 30.1141 27.3777 29.4668V1.62467C27.3777 0.977544 27.9024 0.452881 28.5495 0.452881H71.4504C72.0976 0.452881 72.6222 0.977544 72.6222 1.62467V29.4668C72.6222 30.1139 72.0976 30.6387 71.4504 30.6387ZM29.7215 28.295H70.2787V2.79647H29.7215V28.295Z" fill="#1E2E36"/>
<path d="M67.5469 26.735H32.4531C31.8059 26.735 31.2813 26.2104 31.2813 25.5631V5.52824C31.2813 4.88111 31.8059 4.35645 32.4531 4.35645H67.5469C68.1942 4.35645 68.7188 4.88111 68.7188 5.52824V25.5631C68.7187 26.2104 68.194 26.735 67.5469 26.735ZM33.625 24.3913H66.3751V6.7002H33.625V24.3913Z" fill="#1E2E36"/>
<path d="M36.6535 22.4398C36.0063 22.4398 35.4815 21.9152 35.4815 21.268C35.4815 20.9572 35.605 20.6591 35.8247 20.4393L41.8511 14.4128C42.3087 13.9552 43.0508 13.9552 43.5084 14.4128L47.1655 18.0697C47.6231 18.5273 47.6231 19.2694 47.1655 19.727C46.7079 20.1846 45.9658 20.1846 45.5082 19.727L42.6798 16.8988L37.482 22.0966C37.2626 22.3167 36.9643 22.4402 36.6535 22.4398Z" fill="#1E2E36"/>
<path d="M63.3461 22.3798C63.0352 22.3802 62.7369 22.2567 62.5175 22.0366C61.0915 20.6106 59.6655 19.1839 58.2395 17.7565C56.6337 16.1528 55.0292 14.5482 53.4259 12.9428L52.6742 12.1916C52.4374 11.955 52.2006 11.7183 51.9638 11.4817L45.4418 18.0036C44.9842 18.4612 44.2421 18.4612 43.7845 18.0036C43.3269 17.546 43.3269 16.804 43.7845 16.3464L51.1356 8.99534C51.3553 8.77558 51.6535 8.6521 51.9643 8.6521H51.9651C52.2763 8.65227 52.5744 8.77626 52.7942 8.99653C53.3057 9.50936 53.8178 10.0219 54.331 10.5339L55.0839 11.2862C56.6866 12.891 58.291 14.4954 59.8971 16.0994C61.3217 17.5261 62.7477 18.9528 64.1751 20.3795C64.6327 20.8371 64.6327 21.5791 64.1751 22.0368C63.9548 22.2563 63.6569 22.3798 63.3461 22.3798Z" fill="#1E2E36"/>
<path d="M59.0688 18.1003C58.7582 18.1003 58.4602 17.9771 58.2405 17.7575C56.6334 16.1526 55.0285 14.5477 53.4256 12.9427C53.092 12.6087 52.9913 12.107 53.1704 11.6702C54.1886 9.18557 57.0281 7.99688 59.5128 9.01496C61.9974 10.0332 63.1861 12.8727 62.168 15.3574C61.6742 16.5623 60.7177 17.5189 59.5128 18.0126C59.372 18.0706 59.2212 18.1003 59.0688 18.1003ZM55.7176 11.921C56.8981 13.1026 58.0796 14.2841 59.2624 15.4658C60.3398 14.5854 60.4994 12.9984 59.619 11.921C58.7386 10.8437 57.1516 10.6841 56.0742 11.5645C55.9438 11.671 55.8242 11.7905 55.7176 11.921Z" fill="#1E2E36"/>
<path d="M92.699 83.547C91.2829 83.5487 90.0485 82.5844 89.7074 81.21L88.9794 78.2906C88.8228 77.6626 89.2049 77.0266 89.8329 76.87C89.9257 76.8469 90.0209 76.8352 90.1165 76.8352H95.2814C95.9285 76.8352 96.4534 77.3599 96.4534 78.007C96.4534 78.1026 96.4417 78.1979 96.4186 78.2906L95.6905 81.21C95.3495 82.5844 94.115 83.5489 92.699 83.547ZM91.6165 79.179L91.9816 80.6428C92.0804 81.0389 92.4816 81.2801 92.8779 81.1813C93.1431 81.1151 93.3502 80.908 93.4164 80.6428L93.7814 79.1788L91.6165 79.179Z" fill="#1E2E36"/>
<path d="M7.30102 83.547C5.88497 83.5487 4.65051 82.5844 4.30946 81.21L3.58142 78.2906C3.42483 77.6626 3.80693 77.0266 4.43497 76.87C4.52771 76.8469 4.62298 76.8352 4.71859 76.8352H9.88346C10.5306 76.8352 11.0554 77.3599 11.0554 78.007C11.0554 78.1026 11.0438 78.1979 11.0206 78.2906L10.2926 81.21C9.95136 82.5844 8.7169 83.5489 7.30102 83.547ZM6.21859 79.179L6.58362 80.6428C6.68244 81.0389 7.08362 81.2801 7.47991 81.1813C7.74511 81.1151 7.95221 80.908 8.01842 80.6428L8.38346 79.1788L6.21859 79.179Z" fill="#1E2E36"/>
</svg>

<svg width="100" height="84" fill="none" xmlns="http://www.w3.org/2000/svg"><path d="M46.666 79.18H16.765a4.511 4.511 0 01-4.507-4.507V63.057a4.512 4.512 0 014.507-4.507h29.9a4.512 4.512 0 014.507 4.507v11.616a4.511 4.511 0 01-4.506 4.506zM16.765 60.893a2.165 2.165 0 00-2.163 2.163v11.615a2.165 2.165 0 002.163 2.163h29.9a2.165 2.165 0 002.163-2.162V63.056a2.165 2.165 0 00-2.163-2.163h-29.9z" fill="#1E2E36"/><path d="M10.095 79.18H4.506A4.512 4.512 0 010 74.672V52.436a4.512 4.512 0 014.506-4.507h5.59a4.511 4.511 0 014.506 4.507v22.237a4.511 4.511 0 01-4.507 4.506zM4.506 50.272a2.165 2.165 0 00-2.162 2.163v22.237a2.165 2.165 0 002.162 2.162h5.59a2.165 2.165 0 002.162-2.162V52.436a2.165 2.165 0 00-2.163-2.163H4.506z" fill="#1E2E36"/><path d="M86.57 70.037H13.43a1.172 1.172 0 010-2.344h73.14a1.172 1.172 0 110 2.344zM46.666 60.894H16.765a4.511 4.511 0 01-4.507-4.506V38.54a4.511 4.511 0 014.507-4.507h29.9a4.511 4.511 0 014.507 4.507v17.847a4.511 4.511 0 01-4.506 4.506zM16.765 36.378a2.165 2.165 0 00-2.163 2.162v17.847a2.165 2.165 0 002.163 2.163h29.9a2.165 2.165 0 002.163-2.163V38.541a2.165 2.165 0 00-2.163-2.163h-29.9z" fill="#1E2E36"/><path d="M83.235 60.894h-29.9a4.511 4.511 0 01-4.507-4.506V38.54a4.511 4.511 0 014.506-4.507h29.901a4.511 4.511 0 014.507 4.507v17.847a4.511 4.511 0 01-4.507 4.506zm-29.9-24.516a2.165 2.165 0 00-2.163 2.162v17.847a2.165 2.165 0 002.163 2.163h29.9a2.165 2.165 0 002.163-2.163V38.541a2.165 2.165 0 00-2.163-2.163h-29.9z" fill="#1E2E36"/><path d="M83.235 79.18h-29.9a4.511 4.511 0 01-4.507-4.507V63.057a4.512 4.512 0 014.506-4.507h29.901a4.512 4.512 0 014.507 4.507v11.616a4.511 4.511 0 01-4.507 4.506zm-29.9-18.286a2.165 2.165 0 00-2.163 2.163v11.615a2.165 2.165 0 002.163 2.163h29.9a2.165 2.165 0 002.163-2.162V63.056a2.165 2.165 0 00-2.163-2.163h-29.9z" fill="#1E2E36"/><path d="M95.493 79.18h-5.588a4.512 4.512 0 01-4.507-4.507V52.436a4.511 4.511 0 014.507-4.507h5.588A4.512 4.512 0 01100 52.436v22.237a4.512 4.512 0 01-4.507 4.506zm-5.588-28.907a2.165 2.165 0 00-2.163 2.163v22.237a2.165 2.165 0 002.162 2.162h5.59a2.165 2.165 0 002.162-2.162V52.436a2.165 2.165 0 00-2.163-2.163h-5.588zM52.74 60.894h-5.48a1.172 1.172 0 010-2.344h5.48a1.172 1.172 0 010 2.344zM71.45 30.639h-42.9a1.172 1.172 0 01-1.172-1.172V1.625c0-.647.524-1.172 1.171-1.172H71.45c.648 0 1.172.525 1.172 1.172v27.842c0 .647-.524 1.172-1.172 1.172zm-41.729-2.344H70.28V2.796H29.722v25.499z" fill="#1E2E36"/><path d="M67.547 26.735H32.453a1.172 1.172 0 01-1.172-1.172V5.528c0-.647.525-1.172 1.172-1.172h35.094c.647 0 1.172.525 1.172 1.172v20.035c0 .647-.525 1.172-1.172 1.172zm-33.922-2.344h32.75V6.701h-32.75v17.69z" fill="#1E2E36"/><path d="M36.654 22.44a1.172 1.172 0 01-.83-2l6.027-6.027a1.172 1.172 0 011.657 0l3.657 3.657a1.172 1.172 0 01-1.657 1.657l-2.828-2.828-5.198 5.198c-.22.22-.518.343-.828.343z" fill="#1E2E36"/><path d="M63.346 22.38c-.31 0-.61-.123-.828-.343l-4.279-4.28c-1.605-1.604-3.21-3.209-4.813-4.814l-.752-.751-.71-.71-6.522 6.522a1.172 1.172 0 01-1.657-1.658l7.35-7.35a1.172 1.172 0 011.659.001l1.537 1.537.753.752c1.603 1.605 3.207 3.21 4.813 4.813 1.425 1.427 2.85 2.854 4.278 4.28a1.172 1.172 0 01-.829 2z" fill="#1E2E36"/><path d="M59.069 18.1c-.31 0-.609-.123-.829-.343-1.607-1.604-3.212-3.21-4.814-4.814a1.172 1.172 0 01-.256-1.273 4.862 4.862 0 116.343 6.343c-.141.058-.292.087-.444.087zm-3.351-6.179c1.18 1.182 2.362 2.363 3.544 3.545a2.52 2.52 0 10-3.544-3.545zM92.699 83.547a3.078 3.078 0 01-2.992-2.337l-.728-2.92a1.172 1.172 0 011.138-1.455h5.164a1.172 1.172 0 011.138 1.456l-.728 2.919a3.078 3.078 0 01-2.992 2.337zm-1.082-4.368l.365 1.464a.74.74 0 001.434 0l.365-1.464h-2.165zM7.301 83.547a3.078 3.078 0 01-2.992-2.337l-.728-2.92a1.172 1.172 0 011.138-1.455h5.164a1.172 1.172 0 011.138 1.456l-.728 2.919A3.078 3.078 0 017.3 83.547zm-1.082-4.368l.365 1.464a.74.74 0 001.434 0l.365-1.464H6.22z" fill="#1E2E36"/></svg>
